X:0057
T:East Nook of Fife.
M:2/4
L:1/16
Q:1/4=104
I: :: ::
% D E G A B c ^c d e ^f g a
Z:Jack Campin * www.campin.me.uk * 2009
K:G
D2|G2G2 G2Bc|dBGB dBGB| A2A2  A2gf|Te3`d ef
g2|dcBA GABc|dBGB d3`B| ABcd  BcAB| G2E2 E2:|
dc|B2G2 G2dc|B2G2 G2ed|^c2A2  A2fg| a2A2 A2
Bc|d2G2 B2G2|g2G2 d2cB|(ABcd) BcAB| G2E2 E2:|

